art/logos/makecode.svg

<svg xmlns="http://www.w3.org/2000/svg" viewBox="0 0 800 233"><g fill="#aa268f"><path d="m681.97 47.96-7.66.14a.54.53 88.9 0 1-.54-.53l-.07-7.95a.62.61-.5 0 1 .62-.62h7.58a.61.61 0 0 0 .61-.62c-.09-4.92-.41-10.91 1.58-15.16 4.15-8.88 14.09-11.23 23.16-9.3a.92.91 5.5 0 1 .73.88l.03 8.17a.46.45-85.2 0 1-.53.45c-4.9-.78-9.99-2.32-12.48 3.49-1.29 3-.72 7.94-.76 11.58a.51.5 90 0 0 .5.51h10.76a.5.5 0 0 1 .5.5v8a.5.5 0 0 1-.5.5h-10.75a.5.5 0 0 0-.5.5v41.34a.4.4 0 0 1-.4.4l-10.85.01a.5.49 89.4 0 1-.5-.5V48.48a.52.52 0 0 0-.53-.52"/><ellipse rx="6.87" ry="6.44" transform="rotate(-1 1444.654 -23457.508)"/><path d="M25.72 112.35c4.66 3.2 10.43 6.43 13.89 10.12 6.63 7.04 8.53 16.57 9.02 25.85q.67 12.54.69 25.11c.01 7.65 1.79 16.06 10.16 18.83 6.62 2.2 12.03-.05 11.48 10.07q-.28 5.16-5.89 5.78c-13.83 1.52-26.56-3.9-30.83-17.51q-1.44-4.58-1.57-15.89-.22-18.14-.93-28.21c-1.01-14.31-8.87-20.17-19.39-27.41-5.18-3.57-3.81-11.14.93-14.38 7.03-4.79 12.95-8.49 16.22-16.47q2.41-5.88 2.64-16.43.33-15 .86-30.01c.64-18.27 15.43-28.33 32.72-25.29 6.64 1.16 6.24 9.52 2.87 13.6a1.73 1.69 10.8 0 1-.8.53q-2.55.78-5.11 1.13c-10.23 1.4-12.79 8.87-13.16 18.05-.47 11.92-.2 24.14-2.01 35.94-2.15 14.06-10.87 19.1-21.78 26.04a.33.33 0 0 0-.01.55M239.5 111.85c-9.95-5.59-18.38-11.23-21.26-23.11-2.5-10.28-2.54-22.75-2.69-40.74q-.02-1.76-1.36-6.73c-2.2-8.15-8.76-9.63-16.2-10.5-3.98-.46-4.19-8.09-3.54-10.56 1.74-6.59 17.65-3.88 21.6-2.27q11.03 4.49 14.57 14.94 1.52 4.48 1.71 17.46.35 23.16 1.17 30.4c.95 8.42 6.25 15.46 13.14 20.35 2.66 1.89 8.06 4.62 8.92 7.89 1.57 6.03-.9 8.89-5.84 12.17-13.01 8.66-16.56 16.02-16.94 32.28q-.24 10.48-.36 20.95-.13 10.81-1.56 15.61-5.58 18.69-28.61 18.28c-8.56-.15-9.96-7.18-6.39-13.49a1.36 1.35 3.6 0 1 .72-.63c3.06-1.17 6.91-1.45 9.23-2.26 6.84-2.37 9.19-8.39 9.46-15.4q.58-14.75 1.3-29.49c.9-18.27 7.62-25.84 22.93-34.34a.46.46 0 0 0 0-.81M321.83 30.54l-.19.17a.4.16 83.7 0 0-.08.29l.14 58.77a.47.47 0 0 1-.47.48h-9.98a.5.5 0 0 1-.5-.5V18.83a.41.41 0 0 1 .41-.41l15.82.11a.88.88 0 0 1 .8.55q9.8 25.05 19.53 50.02.96 2.46 1.61 5.04a.14.14 0 0 0 .27.02l22.06-55.13a.77.77 0 0 1 .72-.49l15.24-.12a.54.53 89.5 0 1 .54.54v70.68a.58.58 0 0 1-.57.58l-10.91.05a.56.56 0 0 1-.56-.57q.24-23.22.33-46.45.02-5.13.58-10.97a.44.44 0 0 0-.86-.17q-1.4 4.84-3.52 10.13-9.45 23.59-18.89 47.26a1.2 1.19-79.1 0 1-1.11.76l-6.82-.01a.73.72-10.5 0 1-.68-.46q-9.7-23.99-19.3-47.98-2.81-7.02-3.5-11.23-.02-.12-.11-.04M718.41 47.96l-7.32.14a.51.51 0 0 1-.52-.5l-.1-7.96a.64.63-.4 0 1 .64-.64h7.32a.61.61 0 0 0 .61-.62l-.06-10.67a.76.75 82.5 0 1 .55-.73l10.61-3.03a.48.48 0 0 1 .61.46v13.96a.63.62 90 0 0 .62.63h11.13a.5.5 0 0 1 .5.5v8a.5.5 0 0 1-.5.5h-11.14a.53.53 0 0 0-.53.52q-.18 12.59-.03 25.08c.09 7.55 5.17 11.12 11.92 6.89a.3.3 0 0 1 .46.27l-.24 8.42a.69.68 80.7 0 1-.45.63c-9.58 3.45-22.69 1.58-23.22-11.07q-.38-9.11-.33-30.26a.52.52 0 0 0-.53-.52M119.33 61.59c-8.14-10.88-2.91-27.14 11.52-28.55 13.26-1.29 23.47 12.02 18 24.43-.87 1.96-2.79 3.97-3.97 6.16a1.57 1.53-34.8 0 0-.18.93q.53 4.5 5.38 4.61 8.25.19 28.75.08c3.66-.02 6.88 2.15 6.89 5.81.02 5.15 1.29 29.57-.75 32.57-3.07 4.49-7.45-.67-10.36-2.23-18.97-10.19-36.42 20.81-14.39 31.12q8.97 4.2 17.26-2.01c4.15-3.1 8.25-3.09 8.25 3.11q.03 15.07-.08 30.14c-.04 6.83-4.43 7.72-10.42 7.72q-43.74.04-87.48-.02c-6.48-.01-7.99-3.97-7.99-9.89q-.02-44.91 0-89.82 0-3.52 3.86-6.21a1.67 1.64-61.4 0 1 .92-.28q14.14-.01 28.26-.01c4.55 0 11.33-1.26 6.53-7.66M453.56 37.94q7.09-.26 13.08 2.1a.85.85 0 0 1 .53.77l.1 9.61a.43.43 0 0 1-.67.36c-14.85-9.95-29.79.88-27.18 18.18 2.07 13.7 17.16 16.54 27.01 9.05q.58-.44.58.29l-.03 8.98a.83.83 0 0 1-.45.74c-17.5 8.66-37.86.28-39.33-20.3-1.2-16.65 9.27-29.17 26.36-29.78M513.58 75.92c-5.93-16.05 1.49-34.81 19.7-37.64 12.14-1.88 24.53 2.17 29.01 14.45 4.94 13.54.81 30.99-13.61 36.69-12.83 5.07-29.95.44-35.1-13.5m28.18-28.38c-22.05-5.4-25.33 33.65-3.87 34.52 18.24.73 19.53-30.68 3.87-34.52M594.12 71.65c-5.25-2.94-11.82-4.36-16.48-8.06-5.32-4.23-6.38-11.9-2.99-17.31 6.03-9.6 21.47-9.87 31.05-6.45a.82.81 9.6 0 1 .55.77v8.63a.39.39 0 0 1-.55.35q-8.71-4.26-16.44-2.6c-4.39.95-6.93 5.96-3.35 9.53 2.63 2.6 10.93 4.9 13.79 6.27 12.92 6.18 12.16 22.11-1.74 26.59q-12.67 4.08-24.98-.72a.75.74 11.2 0 1-.47-.69l-.02-9.62q0-.72.58-.29 8.27 6.09 18.49 4.26c5.91-1.06 8.41-7.38 2.56-10.66M617.13 71.07c-4.39-23.35 14.7-38.72 36.87-31.55 14.05 4.55 17.51 22.63 13.53 34.99-7.64 23.8-45.57 22.35-50.4-3.44m30.17-23.4c-24.19-6.83-25.64 37.94-2.03 34.28 15.76-2.44 15.97-30.35 2.03-34.28M490.28 49.13q.28-.31.24-.71a1.47 1.41 58.7 0 1 .2-.9c4.12-6.88 7.93-11.14 16.77-8.66a.69.68-82.2 0 1 .5.66l.02 9.85a.44.43-77.8 0 1-.61.4c-11.19-5.03-17.36 5.04-17.49 14.79q-.16 12.58-.22 25.15a.54.54 0 0 1-.54.54h-10.4a.5.5 0 0 1-.5-.5V39.5a.5.5 0 0 1 .5-.5h10.5a.5.5 0 0 1 .5.5v9.43q0 .79.53.2"/><rect width="11.5" height="51.24" x="403.75" y="39" rx=".28"/><path d="m468.73 188.45.03 23.42a.63.63 0 0 1-.63.63h-10.47a.66.66 0 0 1-.66-.66v-74.47a.63.62 0 0 1 .63-.62h10.5a.63.63 0 0 1 .63.63l-.03 46.91q0 .71.44.16l18.11-22.73a1.11 1.1 18.8 0 1 .87-.42l12.82-.05q.88 0 .31.66l-20.51 23.82a.54.54 0 0 0 0 .71l22.24 25.52a.33.32 69.3 0 1-.24.54h-13.68a1.04 1.03-19.2 0 1-.81-.39l-19.18-23.79a.21.21 0 0 0-.37.13M721.32 167.95a.31.31 0 0 0 .57-.17l-.2-30.37a.65.65 0 0 1 .65-.66h10.59a.52.52 0 0 1 .52.49c.7 10.42-.13 21.1.03 31.57.24 15.41.09 28.71.05 43.08a.61.61 0 0 1-.61.61h-10.58a.65.65 0 0 1-.65-.67l.24-7.12a.34.34 0 0 0-.64-.18c-3.95 6.66-10.26 9.58-18.04 9.03-27.59-1.95-25.6-52.15 2.82-53.2 6.59-.25 11.82 2.01 15.25 7.59m-1.82 6.61c-5.9-8.31-19.06-6.03-22.33 3.85q-2.61 7.93-.67 15.81c3.44 14.03 21.78 13.51 24.98-.01 1.3-5.47 1.42-14.86-1.98-19.65M561 167.25c5.6-24.7 31.49-32.09 52.79-24.76a.69.68-80.5 0 1 .46.65v10.83a.33.33 0 0 1-.49.29c-17.33-9.47-38.31-2.34-41.27 18.59-3.64 25.7 20.35 37.99 41.18 25.93q.6-.35.6.34l-.06 10.01a.81.8 79.3 0 1-.51.75c-31.9 13.1-60.67-7.43-52.7-42.63M321.79 153.03c-.81 2.73-.04 6.01-.04 7.95v51.03a.5.49 0 0 1-.5.49h-10a.5.5 0 0 1-.5-.5v-70.84a.4.4 0 0 1 .4-.4l15.79-.01a.74.71-10.5 0 1 .68.45q9.94 25.2 19.82 50.36.93 2.37 1.41 4.89a.2.2 0 0 0 .39.04l22.11-55.25a.79.79 0 0 1 .73-.49h15.05a.63.62-90 0 1 .62.63v70.8a.31.31 0 0 1-.31.31l-11.12.01a.58.57 89.5 0 1-.58-.58q.12-22.86.28-45.66c.03-3.43.53-8.63.25-12.96q-.04-.51-.18-.02c-.81 2.67-1.54 5.33-2.56 7.92q-10.05 25.45-20.27 50.84a.74.73-78.6 0 1-.68.46h-7.16a.88.88 0 0 1-.82-.56q-10.49-26.16-21.02-52.25-1.05-2.59-1.58-6.64-.07-.51-.21-.02M431.7 179.18c.23-15.66-18.97-10.23-26.07-4.46a.53.53 0 0 1-.87-.43l.31-8.82a.96.94 78 0 1 .52-.82q10.85-5.61 22.96-3.92c12.31 1.71 14.35 10.97 14.39 21.52q.06 14.88.06 29.75a.5.5 0 0 1-.5.5h-10.25a.5.49 90 0 1-.49-.5l-.02-6.53q-.01-1.12-.63-.19c-6.12 9.12-18.02 11.43-26.46 4.64-6.85-5.51-6.15-19.05 1.63-24.39 5.71-3.92 17.81-4.82 24.92-5.78a.57.57 0 0 0 .5-.57m-20.46 16.4c-3.05 13.14 22.27 13.74 20.48-7.58a.49.48-5.2 0 0-.54-.44c-5.95.65-18.23.63-19.94 8.02"/><path d="M517.32 190.76c.49 16.81 20.06 16.57 30.18 9.51a.49.49 0 0 1 .77.41l-.24 7.99a1 .94 73.4 0 1-.37.73q-.99.78-2.25 1.29c-14.26 5.79-33.08 4.42-38.44-12.69-12.77-40.8 47.52-55.74 44.91-8.32a.6.6 0 0 1-.6.57h-33.47a.5.49 89.4 0 0-.49.51m23.3-9.48c.7-17.08-21.7-16-23.27.09a.37.37 0 0 0 .37.41h22.37a.53.52 1.1 0 0 .53-.5M623.08 189.22c-.36-11.74 4.2-23.13 16.21-27.11 21.14-7.01 38.73 5.92 35.98 28.55-3.86 31.83-51.22 30.5-52.19-1.44m31.79-18.82c-19.52-7.44-26.51 22.53-13.49 31.7 4.27 3.01 10.47 3.28 15.37.67 10.17-5.42 8.99-28.23-1.88-32.37M763.19 213.1c-26.33-5-23.16-50.9 4.86-52.75 18.98-1.26 23.77 13.41 23.77 29.33a.57.56-90 0 1-.56.57h-33.79a.41.41 0 0 0-.41.42c.49 17.02 20.04 16.59 30.31 9.53a.24.23-17.3 0 1 .37.19l.02 8.55a.96.95-12.8 0 1-.55.86q-11.81 5.62-24.02 3.3m17.15-31.74c1.02-17.42-22.53-15.79-22.96 0a.41.4-89.3 0 0 .4.42h22.11a.45.45 0 0 0 .45-.42"/></g></svg>

<?xml version="1.0" encoding="UTF-8" standalone="no"?>
<!DOCTYPE svg PUBLIC "-//W3C//DTD SVG 1.1//EN" "http://www.w3.org/Graphics/SVG/1.1/DTD/svg11.dtd">
<svg xmlns="http://www.w3.org/2000/svg" version="1.1" viewBox="0 0 800 233">
<g fill="#aa268f">
<path d="
  M 681.97 47.96
  L 674.31 48.10
  A 0.54 0.53 88.9 0 1 673.77 47.57
  L 673.70 39.62
  A 0.62 0.61 -0.5 0 1 674.32 39.00
  L 681.90 39.00
  A 0.61 0.61 0.0 0 0 682.51 38.38
  C 682.42 33.46 682.10 27.47 684.09 23.22
  C 688.24 14.34 698.18 11.99 707.25 13.92
  A 0.92 0.91 5.5 0 1 707.98 14.80
  L 708.01 22.97
  A 0.46 0.45 -85.2 0 1 707.48 23.42
  C 702.58 22.64 697.49 21.10 695.00 26.91
  C 693.71 29.91 694.28 34.85 694.24 38.49
  A 0.51 0.50 90.0 0 0 694.74 39.00
  L 705.50 39.00
  A 0.50 0.50 0.0 0 1 706.00 39.50
  L 706.00 47.50
  A 0.50 0.50 0.0 0 1 705.50 48.00
  L 694.75 48.00
  A 0.50 0.50 0.0 0 0 694.25 48.50
  L 694.25 89.84
  A 0.40 0.40 0.0 0 1 693.85 90.24
  L 683.00 90.25
  A 0.50 0.49 89.4 0 1 682.50 89.75
  L 682.50 48.48
  A 0.52 0.52 0.0 0 0 681.97 47.96
  Z"
/>
<ellipse cx="0.00" cy="0.00" transform="translate(409.61,21.64) rotate(-1.0)" rx="6.87" ry="6.44"/>
<path d="
  M 25.72 112.35
  C 30.38 115.55 36.15 118.78 39.61 122.47
  C 46.24 129.51 48.14 139.04 48.63 148.32
  Q 49.30 160.86 49.32 173.43
  C 49.33 181.08 51.11 189.49 59.48 192.26
  C 66.10 194.46 71.51 192.21 70.96 202.33
  Q 70.68 207.49 65.07 208.11
  C 51.24 209.63 38.51 204.21 34.24 190.60
  Q 32.80 186.02 32.67 174.71
  Q 32.45 156.57 31.74 146.50
  C 30.73 132.19 22.87 126.33 12.35 119.09
  C 7.17 115.52 8.54 107.95 13.28 104.71
  C 20.31 99.92 26.23 96.22 29.50 88.24
  Q 31.91 82.36 32.14 71.81
  Q 32.47 56.81 33.00 41.80
  C 33.64 23.53 48.43 13.47 65.72 16.51
  C 72.36 17.67 71.96 26.03 68.59 30.11
  A 1.73 1.69 10.8 0 1 67.79 30.64
  Q 65.24 31.42 62.68 31.77
  C 52.45 33.17 49.89 40.64 49.52 49.82
  C 49.05 61.74 49.32 73.96 47.51 85.76
  C 45.36 99.82 36.64 104.86 25.73 111.80
  A 0.33 0.33 0.0 0 0 25.72 112.35
  Z"
/>
<path d="
  M 239.50 111.85
  C 229.55 106.26 221.12 100.62 218.24 88.74
  C 215.74 78.46 215.70 65.99 215.55 48.00
  Q 215.53 46.24 214.19 41.27
  C 211.99 33.12 205.43 31.64 197.99 30.77
  C 194.01 30.31 193.80 22.68 194.45 20.21
  C 196.19 13.62 212.10 16.33 216.05 17.94
  Q 227.08 22.43 230.62 32.88
  Q 232.14 37.36 232.33 50.34
  Q 232.68 73.50 233.50 80.74
  C 234.45 89.16 239.75 96.20 246.64 101.09
  C 249.30 102.98 254.70 105.71 255.56 108.98
  C 257.13 115.01 254.66 117.87 249.72 121.15
  C 236.71 129.81 233.16 137.17 232.78 153.43
  Q 232.54 163.91 232.42 174.38
  Q 232.29 185.19 230.86 189.99
  Q 225.28 208.68 202.25 208.27
  C 193.69 208.12 192.29 201.09 195.86 194.78
  A 1.36 1.35 3.6 0 1 196.58 194.15
  C 199.64 192.98 203.49 192.70 205.81 191.89
  C 212.65 189.52 215.00 183.50 215.27 176.49
  Q 215.85 161.74 216.57 147.00
  C 217.47 128.73 224.19 121.16 239.50 112.66
  A 0.46 0.46 0.0 0 0 239.50 111.85
  Z"
/>
<path d="
  M 321.83 30.54
  L 321.64 30.71
  A 0.40 0.16 83.7 0 0 321.56 31.00
  L 321.70 89.77
  A 0.47 0.47 0.0 0 1 321.23 90.25
  L 311.25 90.25
  A 0.50 0.50 0.0 0 1 310.75 89.75
  L 310.75 18.83
  A 0.41 0.41 0.0 0 1 311.16 18.42
  L 326.98 18.53
  A 0.88 0.88 0.0 0 1 327.78 19.08
  Q 337.58 44.13 347.31 69.10
  Q 348.27 71.56 348.92 74.14
  A 0.14 0.14 0.0 0 0 349.19 74.16
  L 371.25 19.03
  A 0.77 0.77 0.0 0 1 371.97 18.54
  L 387.21 18.42
  A 0.54 0.53 89.5 0 1 387.75 18.96
  L 387.75 89.64
  A 0.58 0.58 0.0 0 1 387.18 90.22
  L 376.27 90.27
  A 0.56 0.56 0.0 0 1 375.71 89.70
  Q 375.95 66.48 376.04 43.25
  Q 376.06 38.12 376.62 32.28
  A 0.44 0.44 0.0 0 0 375.76 32.11
  Q 374.36 36.95 372.24 42.24
  Q 362.79 65.83 353.35 89.50
  A 1.20 1.19 -79.1 0 1 352.24 90.26
  L 345.42 90.25
  A 0.73 0.72 -10.5 0 1 344.74 89.79
  Q 335.04 65.80 325.44 41.81
  Q 322.63 34.79 321.94 30.58
  Q 321.92 30.46 321.83 30.54
  Z"
/>
<path d="
  M 718.41 47.96
  L 711.09 48.10
  A 0.51 0.51 0.0 0 1 710.57 47.60
  L 710.47 39.64
  A 0.64 0.63 -0.4 0 1 711.11 39.00
  L 718.43 39.00
  A 0.61 0.61 0.0 0 0 719.04 38.38
  L 718.98 27.71
  A 0.76 0.75 82.5 0 1 719.53 26.98
  L 730.14 23.95
  A 0.48 0.48 0.0 0 1 730.75 24.41
  L 730.75 38.37
  A 0.63 0.62 90.0 0 0 731.37 39.00
  L 742.50 39.00
  A 0.50 0.50 0.0 0 1 743.00 39.50
  L 743.00 47.50
  A 0.50 0.50 0.0 0 1 742.50 48.00
  L 731.36 48.00
  A 0.53 0.53 0.0 0 0 730.83 48.52
  Q 730.65 61.11 730.80 73.60
  C 730.89 81.15 735.97 84.72 742.72 80.49
  A 0.30 0.30 0.0 0 1 743.18 80.76
  L 742.94 89.18
  A 0.69 0.68 80.7 0 1 742.49 89.81
  C 732.91 93.26 719.80 91.39 719.27 78.74
  Q 718.89 69.63 718.94 48.48
  A 0.52 0.52 0.0 0 0 718.41 47.96
  Z"
/>
<path d="
  M 119.33 61.59
  C 111.19 50.71 116.42 34.45 130.85 33.04
  C 144.11 31.75 154.32 45.06 148.85 57.47
  C 147.98 59.43 146.06 61.44 144.88 63.63
  A 1.57 1.53 -34.8 0 0 144.70 64.56
  Q 145.23 69.06 150.08 69.17
  Q 158.33 69.36 178.83 69.25
  C 182.49 69.23 185.71 71.40 185.72 75.06
  C 185.74 80.21 187.01 104.63 184.97 107.63
  C 181.90 112.12 177.52 106.96 174.61 105.40
  C 155.64 95.21 138.19 126.21 160.22 136.52
  Q 169.19 140.72 177.48 134.51
  C 181.63 131.41 185.73 131.42 185.73 137.62
  Q 185.76 152.69 185.65 167.76
  C 185.61 174.59 181.22 175.48 175.23 175.48
  Q 131.49 175.52 87.75 175.46
  C 81.27 175.45 79.76 171.49 79.76 165.57
  Q 79.74 120.66 79.76 75.75
  Q 79.76 72.23 83.62 69.54
  A 1.67 1.64 -61.4 0 1 84.54 69.26
  Q 98.68 69.25 112.80 69.25
  C 117.35 69.25 124.13 67.99 119.33 61.59
  Z"
/>
<path d="
  M 453.56 37.94
  Q 460.65 37.68 466.64 40.04
  A 0.85 0.85 0.0 0 1 467.17 40.81
  L 467.27 50.42
  A 0.43 0.43 0.0 0 1 466.60 50.78
  C 451.75 40.83 436.81 51.66 439.42 68.96
  C 441.49 82.66 456.58 85.50 466.43 78.01
  Q 467.01 77.57 467.01 78.30
  L 466.98 87.28
  A 0.83 0.83 0.0 0 1 466.53 88.02
  C 449.03 96.68 428.67 88.30 427.20 67.72
  C 426.00 51.07 436.47 38.55 453.56 37.94
  Z"
/>
<path d="
  M 513.58 75.92
  C 507.65 59.87 515.07 41.11 533.28 38.28
  C 545.42 36.40 557.81 40.45 562.29 52.73
  C 567.23 66.27 563.10 83.72 548.68 89.42
  C 535.85 94.49 518.73 89.86 513.58 75.92
  Z
  M 541.76 47.54
  C 519.71 42.14 516.43 81.19 537.89 82.06
  C 556.13 82.79 557.42 51.38 541.76 47.54
  Z"
/>
<path d="
  M 594.12 71.65
  C 588.87 68.71 582.30 67.29 577.64 63.59
  C 572.32 59.36 571.26 51.69 574.65 46.28
  C 580.68 36.68 596.12 36.41 605.70 39.83
  A 0.82 0.81 9.6 0 1 606.25 40.60
  L 606.25 49.23
  A 0.39 0.39 0.0 0 1 605.70 49.58
  Q 596.99 45.32 589.26 46.98
  C 584.87 47.93 582.33 52.94 585.91 56.51
  C 588.54 59.11 596.84 61.41 599.70 62.78
  C 612.62 68.96 611.86 84.89 597.96 89.37
  Q 585.29 93.45 572.98 88.65
  A 0.75 0.74 11.2 0 1 572.51 87.96
  L 572.49 78.34
  Q 572.49 77.62 573.07 78.05
  Q 581.34 84.14 591.56 82.31
  C 597.47 81.25 599.97 74.93 594.12 71.65
  Z"
/>
<path d="
  M 617.13 71.07
  C 612.74 47.72 631.83 32.35 654.00 39.52
  C 668.05 44.07 671.51 62.15 667.53 74.51
  C 659.89 98.31 621.96 96.86 617.13 71.07
  Z
  M 647.30 47.67
  C 623.11 40.84 621.66 85.61 645.27 81.95
  C 661.03 79.51 661.24 51.60 647.30 47.67
  Z"
/>
<path d="
  M 490.28 49.13
  Q 490.56 48.82 490.52 48.42
  A 1.47 1.41 58.7 0 1 490.72 47.52
  C 494.84 40.64 498.65 36.38 507.49 38.86
  A 0.69 0.68 -82.2 0 1 507.99 39.52
  L 508.01 49.37
  A 0.44 0.43 -77.8 0 1 507.40 49.77
  C 496.21 44.74 490.04 54.81 489.91 64.56
  Q 489.75 77.14 489.69 89.71
  A 0.54 0.54 0.0 0 1 489.15 90.25
  L 478.75 90.25
  A 0.50 0.50 0.0 0 1 478.25 89.75
  L 478.25 39.50
  A 0.50 0.50 0.0 0 1 478.75 39.00
  L 489.25 39.00
  A 0.50 0.50 0.0 0 1 489.75 39.50
  L 489.75 48.93
  Q 489.75 49.72 490.28 49.13
  Z"
/>
<rect x="403.75" y="39.00" width="11.50" height="51.24" rx="0.28"/>
<path d="
  M 468.73 188.45
  L 468.76 211.87
  A 0.63 0.63 0.0 0 1 468.13 212.50
  L 457.66 212.50
  A 0.66 0.66 0.0 0 1 457.00 211.84
  L 457.00 137.37
  A 0.63 0.62 -0.0 0 1 457.63 136.75
  L 468.13 136.75
  A 0.63 0.63 0.0 0 1 468.76 137.38
  L 468.73 184.29
  Q 468.73 185.00 469.17 184.45
  L 487.28 161.72
  A 1.11 1.10 18.8 0 1 488.15 161.30
  L 500.97 161.25
  Q 501.85 161.25 501.28 161.91
  L 480.77 185.73
  A 0.54 0.54 0.0 0 0 480.77 186.44
  L 503.01 211.96
  A 0.33 0.32 69.3 0 1 502.77 212.50
  L 489.09 212.50
  A 1.04 1.03 -19.2 0 1 488.28 212.11
  L 469.10 188.32
  A 0.21 0.21 0.0 0 0 468.73 188.45
  Z"
/>
<path d="
  M 721.32 167.95
  A 0.31 0.31 0.0 0 0 721.89 167.78
  L 721.69 137.41
  A 0.65 0.65 0.0 0 1 722.34 136.75
  L 732.93 136.75
  A 0.52 0.52 0.0 0 1 733.45 137.24
  C 734.15 147.66 733.32 158.34 733.48 168.81
  C 733.72 184.22 733.57 197.52 733.53 211.89
  A 0.61 0.61 0.0 0 1 732.92 212.50
  L 722.34 212.50
  A 0.65 0.65 0.0 0 1 721.69 211.83
  L 721.93 204.71
  A 0.34 0.34 0.0 0 0 721.29 204.53
  C 717.34 211.19 711.03 214.11 703.25 213.56
  C 675.66 211.61 677.65 161.41 706.07 160.36
  C 712.66 160.11 717.89 162.37 721.32 167.95
  Z
  M 719.50 174.56
  C 713.60 166.25 700.44 168.53 697.17 178.41
  Q 694.56 186.34 696.50 194.22
  C 699.94 208.25 718.28 207.73 721.48 194.21
  C 722.78 188.74 722.90 179.35 719.50 174.56
  Z"
/>
<path d="
  M 561.00 167.25
  C 566.60 142.55 592.49 135.16 613.79 142.49
  A 0.69 0.68 -80.5 0 1 614.25 143.14
  L 614.25 153.97
  A 0.33 0.33 0.0 0 1 613.76 154.26
  C 596.43 144.79 575.45 151.92 572.49 172.85
  C 568.85 198.55 592.84 210.84 613.67 198.78
  Q 614.27 198.43 614.27 199.12
  L 614.21 209.13
  A 0.81 0.80 79.3 0 1 613.70 209.88
  C 581.80 222.98 553.03 202.45 561.00 167.25
  Z"
/>
<path d="
  M 321.79 153.03
  C 320.98 155.76 321.75 159.04 321.75 160.98
  Q 321.75 186.02 321.75 212.01
  A 0.50 0.49 -0.0 0 1 321.25 212.50
  L 311.25 212.50
  A 0.50 0.50 0.0 0 1 310.75 212.00
  L 310.75 141.16
  A 0.40 0.40 0.0 0 1 311.15 140.76
  L 326.94 140.75
  A 0.74 0.71 -10.5 0 1 327.62 141.20
  Q 337.56 166.40 347.44 191.56
  Q 348.37 193.93 348.85 196.45
  A 0.20 0.20 0.0 0 0 349.24 196.49
  L 371.35 141.24
  A 0.79 0.79 0.0 0 1 372.08 140.75
  L 387.13 140.75
  A 0.63 0.62 -90.0 0 1 387.75 141.38
  L 387.75 212.18
  A 0.31 0.31 0.0 0 1 387.44 212.49
  L 376.32 212.50
  A 0.58 0.57 89.5 0 1 375.74 211.92
  Q 375.86 189.06 376.02 166.26
  C 376.05 162.83 376.55 157.63 376.27 153.30
  Q 376.23 152.79 376.09 153.28
  C 375.28 155.95 374.55 158.61 373.53 161.20
  Q 363.48 186.65 353.26 212.04
  A 0.74 0.73 -78.6 0 1 352.58 212.50
  L 345.42 212.50
  A 0.88 0.88 0.0 0 1 344.60 211.94
  Q 334.11 185.78 323.58 159.69
  Q 322.53 157.10 322.00 153.05
  Q 321.93 152.54 321.79 153.03
  Z"
/>
<path d="
  M 431.70 179.18
  C 431.93 163.52 412.73 168.95 405.63 174.72
  A 0.53 0.53 0.0 0 1 404.76 174.29
  L 405.07 165.47
  A 0.96 0.94 78.0 0 1 405.59 164.65
  Q 416.44 159.04 428.55 160.73
  C 440.86 162.44 442.90 171.70 442.94 182.25
  Q 443.00 197.13 443.00 212.00
  A 0.50 0.50 0.0 0 1 442.50 212.50
  L 432.25 212.50
  A 0.50 0.49 90.0 0 1 431.76 212.00
  L 431.74 205.47
  Q 431.73 204.35 431.11 205.28
  C 424.99 214.40 413.09 216.71 404.65 209.92
  C 397.80 204.41 398.50 190.87 406.28 185.53
  C 411.99 181.61 424.09 180.71 431.20 179.75
  A 0.57 0.57 0.0 0 0 431.70 179.18
  Z
  M 411.24 195.58
  C 408.19 208.72 433.51 209.32 431.72 188.00
  A 0.49 0.48 -5.2 0 0 431.18 187.56
  C 425.23 188.21 412.95 188.19 411.24 195.58
  Z"
/>
<path d="
  M 517.32 190.76
  C 517.81 207.57 537.38 207.33 547.50 200.27
  A 0.49 0.49 0.0 0 1 548.27 200.68
  L 548.03 208.67
  A 1.00 0.94 73.4 0 1 547.66 209.40
  Q 546.67 210.18 545.41 210.69
  C 531.15 216.48 512.33 215.11 506.97 198.00
  C 494.20 157.20 554.49 142.26 551.88 189.68
  A 0.60 0.60 0.0 0 1 551.28 190.25
  L 517.81 190.25
  A 0.50 0.49 89.4 0 0 517.32 190.76
  Z
  M 540.62 181.28
  C 541.32 164.20 518.92 165.28 517.35 181.37
  A 0.37 0.37 0.0 0 0 517.72 181.78
  L 540.09 181.78
  A 0.53 0.52 1.1 0 0 540.62 181.28
  Z"
/>
<path d="
  M 623.08 189.22
  C 622.72 177.48 627.28 166.09 639.29 162.11
  C 660.43 155.10 678.02 168.03 675.27 190.66
  C 671.41 222.49 624.05 221.16 623.08 189.22
  Z
  M 654.87 170.40
  C 635.35 162.96 628.36 192.93 641.38 202.10
  C 645.65 205.11 651.85 205.38 656.75 202.77
  C 666.92 197.35 665.74 174.54 654.87 170.40
  Z"
/>
<path d="
  M 763.19 213.10
  C 736.86 208.10 740.03 162.20 768.05 160.35
  C 787.03 159.09 791.82 173.76 791.82 189.68
  A 0.57 0.56 -90.0 0 1 791.26 190.25
  L 757.47 190.25
  A 0.41 0.41 0.0 0 0 757.06 190.67
  C 757.55 207.69 777.10 207.26 787.37 200.20
  A 0.24 0.23 -17.3 0 1 787.74 200.39
  L 787.76 208.94
  A 0.96 0.95 -12.8 0 1 787.21 209.80
  Q 775.40 215.42 763.19 213.10
  Z
  M 780.34 181.36
  C 781.36 163.94 757.81 165.57 757.38 181.36
  A 0.41 0.40 -89.3 0 0 757.78 181.78
  L 779.89 181.78
  A 0.45 0.45 0.0 0 0 780.34 181.36
  Z"
/>
</g>
</svg>
